flaticon/interaction/map-7.svg

<svg xmlns="http://www.w3.org/2000/svg" width="32" height="32" viewBox="0 0 24 24">
    <path d="M 23.980469 16.453125 C 23.808594 14.703125 22.5 13.429688 20.863281 13.429688 C 19.835938 13.429688 18.976562 14.050781 18.429688 14.808594 C 17.882812 14.050781 17.019531 13.429688 15.992188 13.429688 C 14.355469 13.429688 13.046875 14.699219 12.875 16.453125 C 12.859375 16.570312 12.816406 16.976562 12.972656 17.613281 C 13.207031 18.554688 13.746094 19.410156 14.527344 20.089844 L 18.429688 23.425781 L 22.328125 20.085938 C 23.113281 19.410156 23.648438 18.558594 23.882812 17.613281 C 24.042969 16.976562 24 16.570312 23.980469 16.453125 Z M 23.050781 17.410156 C 22.859375 18.175781 22.417969 18.878906 21.769531 19.4375 L 18.429688 22.296875 L 15.089844 19.4375 C 14.441406 18.878906 13.996094 18.175781 13.804688 17.40625 C 13.675781 16.886719 13.722656 16.59375 13.722656 16.59375 L 13.730469 16.550781 C 13.835938 15.425781 14.644531 14.289062 15.992188 14.289062 C 16.929688 14.289062 17.695312 15.066406 18.039062 15.835938 L 18.429688 16.71875 L 18.820312 15.832031 C 19.160156 15.066406 19.925781 14.289062 20.863281 14.289062 C 22.210938 14.289062 23.023438 15.425781 23.132812 16.589844 C 23.132812 16.59375 23.183594 16.882812 23.050781 17.410156 Z M 23.050781 17.410156"/>
    <path d="M 11.3125 20.324219 L 8.570312 19.148438 L 8.570312 1.714844 L 15 5.117188 L 15 11.289062 C 15 11.527344 15.191406 11.71875 15.429688 11.71875 C 15.664062 11.71875 15.859375 11.527344 15.859375 11.289062 L 15.859375 5.148438 L 22.285156 2.5 L 22.285156 12.144531 C 22.285156 12.382812 22.476562 12.574219 22.714844 12.574219 C 22.953125 12.574219 23.144531 12.382812 23.144531 12.144531 L 23.144531 1.859375 C 23.144531 1.71875 23.070312 1.582031 22.953125 1.503906 C 22.835938 1.425781 22.683594 1.410156 22.550781 1.464844 L 15.453125 4.386719 L 8.34375 0.625 C 8.339844 0.621094 8.332031 0.621094 8.328125 0.617188 C 8.304688 0.609375 8.285156 0.601562 8.261719 0.59375 C 8.25 0.589844 8.238281 0.585938 8.226562 0.585938 C 8.203125 0.578125 8.179688 0.578125 8.15625 0.578125 C 8.144531 0.578125 8.132812 0.574219 8.121094 0.574219 C 8.101562 0.578125 8.078125 0.582031 8.058594 0.585938 C 8.042969 0.589844 8.03125 0.589844 8.015625 0.59375 C 8.011719 0.597656 8.011719 0.597656 8.007812 0.597656 L 0.292969 3.167969 C 0.117188 3.226562 0 3.390625 0 3.574219 L 0 22.003906 C 0 22.140625 0.0664062 22.269531 0.179688 22.351562 C 0.253906 22.402344 0.339844 22.433594 0.429688 22.433594 C 0.472656 22.433594 0.519531 22.425781 0.5625 22.410156 L 8.125 19.890625 L 10.972656 21.109375 C 11.027344 21.136719 11.085938 21.144531 11.144531 21.144531 C 11.308594 21.144531 11.46875 21.046875 11.535156 20.886719 C 11.628906 20.667969 11.527344 20.417969 11.3125 20.324219 Z M 0.855469 3.882812 L 7.714844 1.597656 L 7.714844 19.121094 L 0.855469 21.410156 Z M 0.855469 3.882812"/>
</svg>

<svg xmlns="http://www.w3.org/2000/svg" width="32" height="32" viewBox="0 0 24 24">
    <path d="M23.98 16.453c-.171-1.75-1.48-3.023-3.117-3.023-1.027 0-1.886.62-2.433 1.379-.547-.758-1.41-1.38-2.438-1.38-1.637 0-2.945 1.27-3.117 3.024-.016.117-.059.524.098 1.16.234.942.773 1.797 1.554 2.477l3.903 3.336 3.898-3.34c.785-.676 1.32-1.527 1.555-2.473.16-.636.117-1.043.097-1.16zm-.93.957c-.19.766-.632 1.469-1.28 2.027l-3.34 2.86-3.34-2.86c-.649-.558-1.094-1.261-1.285-2.03-.13-.52-.082-.813-.082-.813l.007-.043c.106-1.125.915-2.262 2.262-2.262.938 0 1.703.777 2.047 1.547l.39.883.391-.887c.34-.766 1.106-1.543 2.043-1.543 1.348 0 2.16 1.137 2.27 2.3 0 .005.05.294-.082.821zm0 0"/>
    <path d="M11.313 20.324L8.57 19.148V1.715L15 5.117v6.172c0 .238.191.43.43.43a.43.43 0 0 0 .43-.43V5.15L22.284 2.5v9.645c0 .238.192.43.43.43s.43-.192.43-.43V1.859a.434.434 0 0 0-.192-.355.432.432 0 0 0-.402-.04l-7.098 2.923L8.343.625C8.34.621 8.333.621 8.329.617L8.262.594C8.25.59 8.238.586 8.227.586 8.203.578 8.18.578 8.157.578c-.012 0-.024-.004-.036-.004L8.06.586C8.043.59 8.03.59 8.016.594c-.004.004-.004.004-.008.004L.293 3.168A.428.428 0 0 0 0 3.574v18.43a.43.43 0 0 0 .563.406l7.562-2.52 2.848 1.22a.377.377 0 0 0 .172.035.429.429 0 0 0 .168-.82zM.854 3.883l6.86-2.285V19.12l-6.86 2.29zm0 0"/>
</svg>
